X: 2397
T: Baldaquin
R: reel
M: 4/4
K: Amajor
Aceg f2ed|cefg afec|Aceg f2ed|c2Ac BBGB|
Aceg f2ed|cefg agae|f2df eAcA|dBBA BE~E2|
BE~E2 BEGB|A4 AEFG:|:A2cA dAcA|EAAc BAGB|
A2cA dAcA|(3BBB GB (3BBB GB|A2cA dAcA|EAAc BAGB|
EFGA BGBd|1 (3cdc BG AEFG:|2 [M:2/4] (3cdc BG||

